assets/icons/ic_refresh.svg

<svg fill="none" height="16" viewBox="0 0 16 16" width="16" xmlns="http://www.w3.org/2000/svg"><path clip-rule="evenodd" d="m7.72498 1.72657c-1.79442 0-3.40559.78773-4.50552 2.03818l1.31353 1.31353c.17177.17177.05012.46546-.19279.46546h-3.976907c-.150582 0-.2726558-.12207-.2726558-.27266v-3.97691c0-.24291.2936948-.364559.4654568-.1928l1.504866 1.50488c1.39639-1.54414 3.41641-2.5156128 5.66402-2.5156128 3.90682 0 7.12742 2.9340128 7.58002 6.7192728.0536.44856-.2665.85567-.715.90931-.4486.05365-.8558-.26649-.9094-.71505-.3554-2.97261-2.887-5.2776-5.95562-5.2776zm-6.864961 6.00423c.448551-.05364.855661.2665.909311.71505.3555 2.97255 2.887 5.27765 5.95565 5.27765 1.79444 0 3.40562-.7878 4.50552-2.0382l-1.3134-1.3136c-.1718-.1717-.0502-.46544.1928-.46544h3.9768c.1506 0 .2727.12214.2727.27264v3.977c0 .2429-.2937.3645-.4655.1927l-1.5048-1.5048c-1.3965 1.5441-3.41653 2.5156-5.66412 2.5156-3.9069 0-7.127322-2.934-7.580019-6.71929-.0536366-.44855.266505-.85567.715058-.90931z" fill="#fff" fill-rule="evenodd"/></svg>

<svg width="16" height="16" viewBox="0 0 16 16" fill="none" xmlns="http://www.w3.org/2000/svg">
<path fill-rule="evenodd" clip-rule="evenodd" d="M7.72498 1.72657C5.93056 1.72657 4.31939 2.5143 3.21946 3.76475L4.53299 5.07828C4.70476 5.25005 4.58311 5.54374 4.3402 5.54374H0.363293C0.212711 5.54374 0.0906372 5.42167 0.0906372 5.27108V1.29417C0.0906372 1.05126 0.384332 0.929611 0.556094 1.10137L2.06096 2.60625C3.45735 1.06211 5.47737 0.0906372 7.72498 0.0906372C11.6318 0.0906372 14.8524 3.02465 15.305 6.80991C15.3586 7.25847 15.0385 7.66558 14.59 7.71922C14.1414 7.77287 13.7342 7.45273 13.6806 7.00417C13.3252 4.03156 10.7936 1.72657 7.72498 1.72657ZM0.860019 7.7308C1.30857 7.67716 1.71568 7.9973 1.76933 8.44585C2.12483 11.4184 4.65633 13.7235 7.72498 13.7235C9.51942 13.7235 11.1306 12.9357 12.2305 11.6853L10.9171 10.3717C10.7453 10.2 10.8669 9.90626 11.1099 9.90626H15.0867C15.2373 9.90626 15.3594 10.0284 15.3594 10.1789V14.1559C15.3594 14.3988 15.0657 14.5204 14.8939 14.3486L13.3891 12.8438C11.9926 14.3879 9.97257 15.3594 7.72498 15.3594C3.81808 15.3594 0.597658 12.4254 0.144961 8.64011C0.0913244 8.19156 0.411466 7.78444 0.860019 7.7308Z" fill="white"/>
</svg>
